images/132846.svg

<?xml version="1.0" encoding="UTF-8"?>
<svg xmlns="http://www.w3.org/2000/svg" xmlns:xlink="http://www.w3.org/1999/xlink" width="300pt" height="300pt" viewBox="0 0 300 300" version="1.1">
<defs>
<g>
<symbol overflow="visible" id="glyph0-0">
<path style="stroke:none;" d="M 0.59375 2.125 L 0.59375 -8.46875 L 6.59375 -8.46875 L 6.59375 2.125 Z M 1.265625 1.453125 L 5.9375 1.453125 L 5.9375 -7.78125 L 1.265625 -7.78125 Z M 1.265625 1.453125 "/>
</symbol>
<symbol overflow="visible" id="glyph0-1">
<path style="stroke:none;" d="M 1.171875 -8.75 L 2.765625 -8.75 L 6.65625 -1.4375 L 6.65625 -8.75 L 7.796875 -8.75 L 7.796875 0 L 6.203125 0 L 2.328125 -7.3125 L 2.328125 0 L 1.171875 0 Z M 1.171875 -8.75 "/>
</symbol>
<symbol overflow="visible" id="glyph0-2">
<path style="stroke:none;" d="M 1.171875 -8.75 L 2.359375 -8.75 L 2.359375 -5.15625 L 6.65625 -5.15625 L 6.65625 -8.75 L 7.84375 -8.75 L 7.84375 0 L 6.65625 0 L 6.65625 -4.171875 L 2.359375 -4.171875 L 2.359375 0 L 1.171875 0 Z M 1.171875 -8.75 "/>
</symbol>
<symbol overflow="visible" id="glyph0-3">
<path style="stroke:none;" d="M 4.734375 -7.953125 C 3.867188 -7.953125 3.179688 -7.628906 2.671875 -6.984375 C 2.171875 -6.347656 1.921875 -5.472656 1.921875 -4.359375 C 1.921875 -3.265625 2.171875 -2.394531 2.671875 -1.75 C 3.179688 -1.113281 3.867188 -0.796875 4.734375 -0.796875 C 5.585938 -0.796875 6.265625 -1.113281 6.765625 -1.75 C 7.273438 -2.394531 7.53125 -3.265625 7.53125 -4.359375 C 7.53125 -5.472656 7.273438 -6.347656 6.765625 -6.984375 C 6.265625 -7.628906 5.585938 -7.953125 4.734375 -7.953125 Z M 4.734375 -8.90625 C 5.953125 -8.90625 6.925781 -8.492188 7.65625 -7.671875 C 8.394531 -6.847656 8.765625 -5.742188 8.765625 -4.359375 C 8.765625 -2.984375 8.394531 -1.882812 7.65625 -1.0625 C 6.925781 -0.238281 5.953125 0.171875 4.734375 0.171875 C 3.503906 0.171875 2.519531 -0.238281 1.78125 -1.0625 C 1.039062 -1.882812 0.671875 -2.984375 0.671875 -4.359375 C 0.671875 -5.742188 1.039062 -6.847656 1.78125 -7.671875 C 2.519531 -8.492188 3.503906 -8.90625 4.734375 -8.90625 Z M 4.734375 -8.90625 "/>
</symbol>
<symbol overflow="visible" id="glyph0-4">
<path style="stroke:none;" d="M 1.171875 -8.75 L 6.203125 -8.75 L 6.203125 -7.75 L 2.359375 -7.75 L 2.359375 -5.171875 L 5.828125 -5.171875 L 5.828125 -4.171875 L 2.359375 -4.171875 L 2.359375 0 L 1.171875 0 Z M 1.171875 -8.75 "/>
</symbol>
</g>
</defs>
<g id="surface31029">
<rect x="0" y="0" width="300" height="300" style="fill:rgb(100%,100%,100%);fill-opacity:1;stroke:none;"/>
<path style="fill:none;stroke-width:1.2;stroke-linecap:butt;stroke-linejoin:miter;stroke:rgb(0%,0%,0%);stroke-opacity:1;stroke-miterlimit:10;" d="M 230.972656 60.75 L 216.25 86.25 "/>
<path style="fill:none;stroke-width:1.2;stroke-linecap:butt;stroke-linejoin:miter;stroke:rgb(0%,0%,0%);stroke-opacity:1;stroke-miterlimit:10;" d="M 216.25 35.25 L 230.972656 60.75 "/>
<path style="fill:none;stroke-width:1.2;stroke-linecap:butt;stroke-linejoin:miter;stroke:rgb(0%,0%,0%);stroke-opacity:1;stroke-miterlimit:10;" d="M 216.25 86.25 L 186.804688 86.25 "/>
<path style="fill:none;stroke-width:1.2;stroke-linecap:butt;stroke-linejoin:miter;stroke:rgb(0%,0%,0%);stroke-opacity:1;stroke-miterlimit:10;" d="M 186.804688 86.25 L 172.082031 60.75 "/>
<path style="fill:none;stroke-width:1;stroke-linecap:butt;stroke-linejoin:miter;stroke:rgb(0%,0%,0%);stroke-opacity:1;stroke-miterlimit:10;" d="M 186.804688 86.25 L 186.804688 86.25 M 184.878906 88.546875 L 185.78125 89.070312 M 182.949219 90.847656 L 184.753906 91.886719 M 181.019531 93.144531 L 183.730469 94.707031 M 179.089844 95.441406 L 182.703125 97.527344 M 177.164062 97.738281 L 181.679688 100.347656 M 175.234375 100.039062 L 180.652344 103.164062 M 173.304688 102.335938 L 179.625 105.984375 M 171.375 104.632812 L 178.601562 108.804688 M 169.449219 106.929688 L 177.574219 111.621094 M 167.582031 109.152344 L 176.582031 114.347656 "/>
<path style="fill:none;stroke-width:1.2;stroke-linecap:butt;stroke-linejoin:miter;stroke:rgb(0%,0%,0%);stroke-opacity:1;stroke-miterlimit:10;" d="M 172.082031 60.75 L 179.445312 48 "/>
<path style="fill:none;stroke-width:1.2;stroke-linecap:butt;stroke-linejoin:miter;stroke:rgb(0%,0%,100%);stroke-opacity:1;stroke-miterlimit:10;" d="M 179.445312 48 L 186.804688 35.25 "/>
<path style="fill:none;stroke-width:1;stroke-linecap:butt;stroke-linejoin:miter;stroke:rgb(0%,0%,0%);stroke-opacity:1;stroke-miterlimit:10;" d="M 172.082031 60.75 L 172.082031 60.75 M 169.128906 60.230469 L 169.128906 61.269531 M 166.175781 59.707031 L 166.175781 61.792969 M 163.21875 59.1875 L 163.21875 62.3125 M 160.265625 58.664062 L 160.265625 62.835938 M 157.3125 58.144531 L 157.3125 63.355469 M 154.359375 57.621094 L 154.359375 63.878906 M 151.402344 57.101562 L 151.402344 64.398438 M 148.449219 56.578125 L 148.449219 64.921875 M 145.496094 56.058594 L 145.496094 65.441406 M 142.640625 55.554688 L 142.640625 65.945312 "/>
<path style="fill:none;stroke-width:1.2;stroke-linecap:butt;stroke-linejoin:miter;stroke:rgb(0%,0%,100%);stroke-opacity:1;stroke-miterlimit:10;" d="M 186.804688 35.25 L 201.527344 35.25 "/>
<path style="fill:none;stroke-width:1.2;stroke-linecap:butt;stroke-linejoin:miter;stroke:rgb(0%,0%,0%);stroke-opacity:1;stroke-miterlimit:10;" d="M 201.527344 35.25 L 216.25 35.25 "/>
<path style=" stroke:none;fill-rule:nonzero;fill:rgb(100%,100%,100%);fill-opacity:1;" d="M 177.804688 28.25 L 195.804688 28.25 L 195.804688 42.25 L 177.804688 42.25 Z M 177.804688 28.25 "/>
<g style="fill:rgb(0%,0%,100%);fill-opacity:1;">
  <use xlink:href="#glyph0-1" x="177.804688" y="39.388672"/>
  <use xlink:href="#glyph0-2" x="186.78125" y="39.388672"/>
</g>
<path style="fill:none;stroke-width:1.2;stroke-linecap:butt;stroke-linejoin:miter;stroke:rgb(0%,0%,0%);stroke-opacity:1;stroke-miterlimit:10;" d="M 142.640625 60.75 L 127.917969 35.25 "/>
<path style="fill:none;stroke-width:1.2;stroke-linecap:butt;stroke-linejoin:miter;stroke:rgb(0%,0%,0%);stroke-opacity:1;stroke-miterlimit:10;" d="M 135.167969 61.664062 L 123.386719 41.265625 "/>
<path style="fill:none;stroke-width:1.2;stroke-linecap:butt;stroke-linejoin:miter;stroke:rgb(0%,0%,0%);stroke-opacity:1;stroke-miterlimit:10;" d="M 127.917969 86.25 L 142.640625 60.75 "/>
<path style="fill:none;stroke-width:1.2;stroke-linecap:butt;stroke-linejoin:miter;stroke:rgb(0%,0%,0%);stroke-opacity:1;stroke-miterlimit:10;" d="M 127.917969 35.25 L 98.472656 35.25 "/>
<path style="fill:none;stroke-width:1.2;stroke-linecap:butt;stroke-linejoin:miter;stroke:rgb(0%,0%,0%);stroke-opacity:1;stroke-miterlimit:10;" d="M 98.472656 35.25 L 83.75 60.75 "/>
<path style="fill:none;stroke-width:1.2;stroke-linecap:butt;stroke-linejoin:miter;stroke:rgb(0%,0%,0%);stroke-opacity:1;stroke-miterlimit:10;" d="M 103 41.265625 L 91.222656 61.664062 "/>
<path style="fill:none;stroke-width:1.2;stroke-linecap:butt;stroke-linejoin:miter;stroke:rgb(0%,0%,0%);stroke-opacity:1;stroke-miterlimit:10;" d="M 83.75 60.75 L 98.472656 86.25 "/>
<path style="fill:none;stroke-width:1.2;stroke-linecap:butt;stroke-linejoin:miter;stroke:rgb(0%,0%,0%);stroke-opacity:1;stroke-miterlimit:10;" d="M 98.472656 86.25 L 127.917969 86.25 "/>
<path style="fill:none;stroke-width:1.2;stroke-linecap:butt;stroke-linejoin:miter;stroke:rgb(0%,0%,0%);stroke-opacity:1;stroke-miterlimit:10;" d="M 101.414062 79.320312 L 124.972656 79.320312 "/>
<path style="fill:none;stroke-width:1.2;stroke-linecap:butt;stroke-linejoin:miter;stroke:rgb(100%,0%,0%);stroke-opacity:1;stroke-miterlimit:10;" d="M 172.082031 111.75 L 179.445312 124.5 "/>
<path style="fill:none;stroke-width:1.2;stroke-linecap:butt;stroke-linejoin:miter;stroke:rgb(0%,0%,0%);stroke-opacity:1;stroke-miterlimit:10;" d="M 179.445312 124.5 L 186.804688 137.25 "/>
<path style=" stroke:none;fill-rule:nonzero;fill:rgb(100%,100%,100%);fill-opacity:1;" d="M 167.082031 104.75 L 177.082031 104.75 L 177.082031 118.75 L 167.082031 118.75 Z M 167.082031 104.75 "/>
<g style="fill:rgb(100%,0%,0%);fill-opacity:1;">
  <use xlink:href="#glyph0-3" x="167.082031" y="115.888672"/>
</g>
<path style="fill:none;stroke-width:1.2;stroke-linecap:butt;stroke-linejoin:miter;stroke:rgb(0%,0%,0%);stroke-opacity:1;stroke-miterlimit:10;" d="M 186.804688 137.25 L 172.082031 162.75 "/>
<path style="fill:none;stroke-width:1.2;stroke-linecap:butt;stroke-linejoin:miter;stroke:rgb(0%,0%,0%);stroke-opacity:1;stroke-miterlimit:10;" d="M 172.082031 162.75 L 142.640625 162.75 "/>
<path style="fill:none;stroke-width:1.2;stroke-linecap:butt;stroke-linejoin:miter;stroke:rgb(0%,0%,0%);stroke-opacity:1;stroke-miterlimit:10;" d="M 169.140625 169.679688 L 145.582031 169.679688 "/>
<path style="fill:none;stroke-width:1.2;stroke-linecap:butt;stroke-linejoin:miter;stroke:rgb(0%,0%,0%);stroke-opacity:1;stroke-miterlimit:10;" d="M 186.804688 188.25 L 172.082031 162.75 "/>
<path style="fill:none;stroke-width:1.2;stroke-linecap:butt;stroke-linejoin:miter;stroke:rgb(0%,0%,0%);stroke-opacity:1;stroke-miterlimit:10;" d="M 142.640625 162.75 L 127.917969 188.25 "/>
<path style="fill:none;stroke-width:1.2;stroke-linecap:butt;stroke-linejoin:miter;stroke:rgb(0%,0%,0%);stroke-opacity:1;stroke-miterlimit:10;" d="M 127.917969 188.25 L 142.640625 213.75 "/>
<path style="fill:none;stroke-width:1.2;stroke-linecap:butt;stroke-linejoin:miter;stroke:rgb(0%,0%,0%);stroke-opacity:1;stroke-miterlimit:10;" d="M 135.386719 187.335938 L 147.167969 207.734375 "/>
<path style="fill:none;stroke-width:1.2;stroke-linecap:butt;stroke-linejoin:miter;stroke:rgb(0%,0%,0%);stroke-opacity:1;stroke-miterlimit:10;" d="M 127.917969 188.25 L 98.472656 188.25 "/>
<path style="fill:none;stroke-width:1.2;stroke-linecap:butt;stroke-linejoin:miter;stroke:rgb(0%,0%,0%);stroke-opacity:1;stroke-miterlimit:10;" d="M 142.640625 213.75 L 172.082031 213.75 "/>
<path style="fill:none;stroke-width:1.2;stroke-linecap:butt;stroke-linejoin:miter;stroke:rgb(0%,0%,0%);stroke-opacity:1;stroke-miterlimit:10;" d="M 172.082031 213.75 L 186.804688 188.25 "/>
<path style="fill:none;stroke-width:1.2;stroke-linecap:butt;stroke-linejoin:miter;stroke:rgb(0%,0%,0%);stroke-opacity:1;stroke-miterlimit:10;" d="M 167.554688 207.734375 L 179.332031 187.335938 "/>
<path style="fill:none;stroke-width:1.2;stroke-linecap:butt;stroke-linejoin:miter;stroke:rgb(0%,0%,0%);stroke-opacity:1;stroke-miterlimit:10;" d="M 172.082031 213.75 L 186.804688 239.25 "/>
<path style="fill:none;stroke-width:1.2;stroke-linecap:butt;stroke-linejoin:miter;stroke:rgb(0%,0%,0%);stroke-opacity:1;stroke-miterlimit:10;" d="M 186.804688 239.25 L 194.167969 252 "/>
<path style="fill:none;stroke-width:1.2;stroke-linecap:butt;stroke-linejoin:miter;stroke:rgb(20%,80%,80%);stroke-opacity:1;stroke-miterlimit:10;" d="M 194.167969 252 L 201.527344 264.75 "/>
<path style="fill:none;stroke-width:1.2;stroke-linecap:butt;stroke-linejoin:miter;stroke:rgb(0%,0%,0%);stroke-opacity:1;stroke-miterlimit:10;" d="M 186.804688 239.25 L 174.054688 246.609375 "/>
<path style="fill:none;stroke-width:1.2;stroke-linecap:butt;stroke-linejoin:miter;stroke:rgb(20%,80%,80%);stroke-opacity:1;stroke-miterlimit:10;" d="M 174.054688 246.609375 L 161.304688 253.972656 "/>
<path style="fill:none;stroke-width:1.2;stroke-linecap:butt;stroke-linejoin:miter;stroke:rgb(0%,0%,0%);stroke-opacity:1;stroke-miterlimit:10;" d="M 186.804688 239.25 L 199.554688 231.890625 "/>
<path style="fill:none;stroke-width:1.2;stroke-linecap:butt;stroke-linejoin:miter;stroke:rgb(20%,80%,80%);stroke-opacity:1;stroke-miterlimit:10;" d="M 199.554688 231.890625 L 212.304688 224.527344 "/>
<path style=" stroke:none;fill-rule:nonzero;fill:rgb(100%,100%,100%);fill-opacity:1;" d="M 198.527344 257.75 L 205.527344 257.75 L 205.527344 271.75 L 198.527344 271.75 Z M 198.527344 257.75 "/>
<g style="fill:rgb(20%,80%,80%);fill-opacity:1;">
  <use xlink:href="#glyph0-4" x="198.527344" y="268.888672"/>
</g>
<path style=" stroke:none;fill-rule:nonzero;fill:rgb(100%,100%,100%);fill-opacity:1;" d="M 154.304688 246.972656 L 161.304688 246.972656 L 161.304688 260.972656 L 154.304688 260.972656 Z M 154.304688 246.972656 "/>
<g style="fill:rgb(20%,80%,80%);fill-opacity:1;">
  <use xlink:href="#glyph0-4" x="154.304688" y="258.111328"/>
</g>
<path style=" stroke:none;fill-rule:nonzero;fill:rgb(100%,100%,100%);fill-opacity:1;" d="M 209.304688 217.527344 L 216.304688 217.527344 L 216.304688 231.527344 L 209.304688 231.527344 Z M 209.304688 217.527344 "/>
<g style="fill:rgb(20%,80%,80%);fill-opacity:1;">
  <use xlink:href="#glyph0-4" x="209.304688" y="228.666016"/>
</g>
<path style="fill:none;stroke-width:1.2;stroke-linecap:butt;stroke-linejoin:miter;stroke:rgb(0%,0%,0%);stroke-opacity:1;stroke-miterlimit:10;" d="M 98.472656 188.25 L 83.75 188.25 "/>
<path style="fill:none;stroke-width:1.2;stroke-linecap:butt;stroke-linejoin:miter;stroke:rgb(20%,80%,80%);stroke-opacity:1;stroke-miterlimit:10;" d="M 83.75 188.25 L 69.027344 188.25 "/>
<path style="fill:none;stroke-width:1.2;stroke-linecap:butt;stroke-linejoin:miter;stroke:rgb(0%,0%,0%);stroke-opacity:1;stroke-miterlimit:10;" d="M 98.472656 188.25 L 98.472656 173.527344 "/>
<path style="fill:none;stroke-width:1.2;stroke-linecap:butt;stroke-linejoin:miter;stroke:rgb(20%,80%,80%);stroke-opacity:1;stroke-miterlimit:10;" d="M 98.472656 173.527344 L 98.472656 158.804688 "/>
<path style="fill:none;stroke-width:1.2;stroke-linecap:butt;stroke-linejoin:miter;stroke:rgb(0%,0%,0%);stroke-opacity:1;stroke-miterlimit:10;" d="M 98.472656 188.25 L 98.472656 202.972656 "/>
<path style="fill:none;stroke-width:1.2;stroke-linecap:butt;stroke-linejoin:miter;stroke:rgb(20%,80%,80%);stroke-opacity:1;stroke-miterlimit:10;" d="M 98.472656 202.972656 L 98.472656 217.695312 "/>
<path style=" stroke:none;fill-rule:nonzero;fill:rgb(100%,100%,100%);fill-opacity:1;" d="M 62.027344 181.25 L 69.027344 181.25 L 69.027344 195.25 L 62.027344 195.25 Z M 62.027344 181.25 "/>
<g style="fill:rgb(20%,80%,80%);fill-opacity:1;">
  <use xlink:href="#glyph0-4" x="62.027344" y="192.388672"/>
</g>
<path style=" stroke:none;fill-rule:nonzero;fill:rgb(100%,100%,100%);fill-opacity:1;" d="M 95.472656 151.804688 L 102.472656 151.804688 L 102.472656 165.804688 L 95.472656 165.804688 Z M 95.472656 151.804688 "/>
<g style="fill:rgb(20%,80%,80%);fill-opacity:1;">
  <use xlink:href="#glyph0-4" x="95.472656" y="162.943359"/>
</g>
<path style=" stroke:none;fill-rule:nonzero;fill:rgb(100%,100%,100%);fill-opacity:1;" d="M 95.472656 210.695312 L 102.472656 210.695312 L 102.472656 224.695312 L 95.472656 224.695312 Z M 95.472656 210.695312 "/>
<g style="fill:rgb(20%,80%,80%);fill-opacity:1;">
  <use xlink:href="#glyph0-4" x="95.472656" y="221.833984"/>
</g>
</g>
</svg>

<svg xmlns="http://www.w3.org/2000/svg" xmlns:xlink="http://www.w3.org/1999/xlink" width="300pt" height="300pt" viewBox="0 0 300 300"><defs><symbol overflow="visible"><path d="M.594 2.125V-8.47h6V2.126zm.672-.672h4.671V-7.78h-4.67zm0 0"/></symbol><symbol overflow="visible" id="a"><path d="M1.172-8.75h1.594l3.89 7.313V-8.75h1.14V0H6.204L2.328-7.313V0H1.172zm0 0"/></symbol><symbol overflow="visible" id="b"><path d="M1.172-8.75H2.36v3.594h4.296V-8.75h1.188V0H6.656v-4.172H2.36V0H1.17zm0 0"/></symbol><symbol overflow="visible" id="c"><path d="M4.734-7.953c-.867 0-1.554.324-2.062.97-.5.635-.75 1.51-.75 2.624 0 1.094.25 1.965.75 2.61.508.637 1.195.953 2.062.953.852 0 1.532-.316 2.032-.953.507-.645.765-1.516.765-2.61 0-1.113-.257-1.988-.764-2.624-.5-.645-1.18-.97-2.032-.97zm0-.953c1.22 0 2.192.414 2.922 1.234.74.824 1.11 1.93 1.11 3.313 0 1.376-.37 2.477-1.11 3.298C6.926-.24 5.953.17 4.734.17c-1.23 0-2.214-.41-2.953-1.234C1.04-1.882.673-2.984.673-4.36c0-1.382.367-2.488 1.11-3.312.738-.82 1.722-1.234 2.952-1.234zm0 0"/></symbol><symbol overflow="visible" id="d"><path d="M1.172-8.75h5.03v1H2.36v2.578h3.468v1h-3.47V0H1.173zm0 0"/></symbol></defs><g><path fill="#fff" d="M0 0h300v300H0z"/><path d="M230.973 60.75l-14.723 25.5M216.25 35.25l14.723 25.5M216.25 86.25h-29.445M186.805 86.25l-14.723-25.5" stroke-width="1.2" stroke="#000" stroke-miterlimit="10" fill="none"/><path d="M186.805 86.25m-1.926 2.297l.9.523m-2.83 1.778l1.804 1.04m-3.734 1.257l2.71 1.562m-4.64.734l3.613 2.087m-5.54.21l4.517 2.61m-6.446-.308l5.418 3.124m-7.347-.828l6.32 3.648m-8.25-1.35l7.227 4.17m-9.153-1.874l8.124 4.69m-9.992-2.468l9 5.196" stroke="#000" stroke-miterlimit="10" fill="none"/><path d="M172.082 60.75L179.445 48" stroke-width="1.2" stroke="#000" stroke-miterlimit="10" fill="none"/><path d="M179.445 48l7.36-12.75" stroke-width="1.2" stroke="#00f" stroke-miterlimit="10" fill="none"/><path d="M172.082 60.75m-2.953-.52v1.04m-2.954-1.563v2.086m-2.957-2.605v3.124m-2.954-3.648v4.172m-2.953-4.69v5.21m-2.954-5.735v6.26M151.4 57.1v7.296m-2.953-7.82v8.344m-2.954-8.863v9.38m-2.855-9.885v10.39" stroke="#000" stroke-miterlimit="10" fill="none"/><path d="M186.805 35.25h14.722" stroke-width="1.2" stroke="#00f" stroke-miterlimit="10" fill="none"/><path d="M201.527 35.25h14.723" stroke-width="1.2" stroke="#000" stroke-miterlimit="10" fill="none"/><path d="M177.805 28.25h18v14h-18zm0 0" fill="#fff"/><g fill="#00f"><use xlink:href="#a" x="177.805" y="39.389"/><use xlink:href="#b" x="186.781" y="39.389"/></g><path d="M142.64 60.75l-14.722-25.5M135.168 61.664l-11.78-20.398M127.918 86.25l14.723-25.5M127.918 35.25H98.473M98.473 35.25L83.75 60.75M103 41.266L91.223 61.664M83.75 60.75l14.723 25.5M98.473 86.25h29.445M101.414 79.32h23.56" stroke-width="1.2" stroke="#000" stroke-miterlimit="10" fill="none"/><path d="M172.082 111.75l7.363 12.75" stroke-width="1.2" stroke="#f00" stroke-miterlimit="10" fill="none"/><path d="M179.445 124.5l7.36 12.75" stroke-width="1.2" stroke="#000" stroke-miterlimit="10" fill="none"/><path d="M167.082 104.75h10v14h-10zm0 0" fill="#fff"/><use xlink:href="#c" x="167.082" y="115.889" fill="#f00"/><path d="M186.805 137.25l-14.723 25.5M172.082 162.75h-29.44M169.14 169.68h-23.558M186.805 188.25l-14.723-25.5M142.64 162.75l-14.722 25.5M127.918 188.25l14.723 25.5M135.387 187.336l11.78 20.398M127.918 188.25H98.473M142.64 213.75h29.442M172.082 213.75l14.723-25.5M167.555 207.734l11.777-20.398M172.082 213.75l14.723 25.5M186.805 239.25l7.363 12.75" stroke-width="1.2" stroke="#000" stroke-miterlimit="10" fill="none"/><path d="M194.168 252l7.36 12.75" stroke-width="1.2" stroke="#3cc" stroke-miterlimit="10" fill="none"/><path d="M186.805 239.25l-12.75 7.36" stroke-width="1.2" stroke="#000" stroke-miterlimit="10" fill="none"/><path d="M174.055 246.61l-12.75 7.363" stroke-width="1.2" stroke="#3cc" stroke-miterlimit="10" fill="none"/><path d="M186.805 239.25l12.75-7.36" stroke-width="1.2" stroke="#000" stroke-miterlimit="10" fill="none"/><path d="M199.555 231.89l12.75-7.363" stroke-width="1.2" stroke="#3cc" stroke-miterlimit="10" fill="none"/><path d="M198.527 257.75h7v14h-7zm0 0" fill="#fff"/><use xlink:href="#d" x="198.527" y="268.889" fill="#3cc"/><path d="M154.305 246.973h7v14h-7zm0 0" fill="#fff"/><use xlink:href="#d" x="154.305" y="258.111" fill="#3cc"/><path d="M209.305 217.527h7v14h-7zm0 0" fill="#fff"/><use xlink:href="#d" x="209.305" y="228.666" fill="#3cc"/><path d="M98.473 188.25H83.75" stroke-width="1.2" stroke="#000" stroke-miterlimit="10" fill="none"/><path d="M83.75 188.25H69.027" stroke-width="1.2" stroke="#3cc" stroke-miterlimit="10" fill="none"/><path d="M98.473 188.25v-14.723" stroke-width="1.2" stroke="#000" stroke-miterlimit="10" fill="none"/><path d="M98.473 173.527v-14.722" stroke-width="1.2" stroke="#3cc" stroke-miterlimit="10" fill="none"/><path d="M98.473 188.25v14.723" stroke-width="1.2" stroke="#000" stroke-miterlimit="10" fill="none"/><path d="M98.473 202.973v14.722" stroke-width="1.2" stroke="#3cc" stroke-miterlimit="10" fill="none"/><path d="M62.027 181.25h7v14h-7zm0 0" fill="#fff"/><use xlink:href="#d" x="62.027" y="192.389" fill="#3cc"/><path d="M95.473 151.805h7v14h-7zm0 0" fill="#fff"/><use xlink:href="#d" x="95.473" y="162.943" fill="#3cc"/><path d="M95.473 210.695h7v14h-7zm0 0" fill="#fff"/><use xlink:href="#d" x="95.473" y="221.834" fill="#3cc"/></g></svg>
